src/assets/duotone/Happyemoji.svg

<svg width="24" height="24" viewBox="0 0 24 24"  xmlns="http://www.w3.org/2000/svg">
<path opacity="0.4" d="M11.9702 22C17.4931 22 21.9702 17.5228 21.9702 12C21.9702 6.47715 17.4931 2 11.9702 2C6.44737 2 1.97021 6.47715 1.97021 12C1.97021 17.5228 6.44737 22 11.9702 22Z" />
<path d="M11.9999 19.2499C9.84988 19.2499 7.82988 18.1999 6.59988 16.4299C6.35988 16.0899 6.44988 15.6199 6.78988 15.3899C7.12988 15.1499 7.59988 15.2399 7.82988 15.5799C8.77988 16.9399 10.3399 17.7599 11.9999 17.7599C13.6599 17.7599 15.2199 16.9499 16.1699 15.5799C16.4099 15.2399 16.8699 15.1599 17.2099 15.3899C17.5499 15.6299 17.6299 16.0899 17.3999 16.4299C16.1699 18.1999 14.1499 19.2499 11.9999 19.2499Z" />
</svg>

<?xml version="1.0" encoding="UTF-8"?>
<svg width="24" height="24" viewBox="0 0 24 24" xmlns="http://www.w3.org/2000/svg">
 <path d="m11.97 22c5.5229 0 10-4.4772 10-10 0-5.5228-4.4771-10-10-10-5.5228 0-10 4.4772-10 10 0 5.5228 4.4772 10 10 10z" opacity=".4"/>
 <path d="m12 19.25c-2.15 0-4.17-1.05-5.4-2.82-0.24-0.34-0.15-0.81 0.19-1.04 0.34-0.24 0.81-0.15 1.04 0.19 0.95 1.36 2.51 2.18 4.17 2.18s3.22-0.81 4.17-2.18c0.24-0.34 0.7-0.42 1.04-0.19 0.34 0.24 0.42 0.7 0.19 1.04-1.23 1.77-3.25 2.82-5.4 2.82z"/>
</svg>
